FINK
CUT[HAB OFT IM KREISE DER LIEBEN]
REG[Europa, Mitteleuropa, Deutschland]
KEY[F0814  16 Bb 4/4]
MEL[-5__  3__3__4__3_3_  2__.3_2__
    3_2_  1__1_1_2_1_-7_1_  2___0__
    2__  2__2__3__3_3_  5___4__
    3_2_  1__1_1_-7_1_2_3_  1___0__
    1__  1__1__4__3_3_  2__.3_2__
    3__  4__4_3_2__2_.3  2___0__
    2__  5___4#__0__  4___3__0_
    3_  5_4_3_2_1__-7__  1___0__ //] >>
FCT[Geselligkeits -, Moral - Lied]
